X:22
T:Pour que l'homme soit un fils - G297/1
C:J.M. Vincent
L:1/8
M:C
Q:1/4=84
K:Am
"Lam"EE AA|"Mim"G2 D2 "Fa"CD EF|"Do"E2 E2 "Lam"EE AB|"Fa"c2 A2 "Rem"BA GA|\
"Mi"B2 z2 "Lam"EE AA|
"Mim"G2 D2 "Fa"CD EF|"Do"E2 E2 z2 "Lam"AB|"Fa"cc "Rem"BA "Sol"GF EF|\
"Do"G4 z2 "Lam"AB|"Fa"cc "Rem"BA "Mim"GE GB|"Lam"A4||
